X: 30817
T: Otter's Holt, The
R: reel
M: 4/4
K: Bminor
|:"Bm"fBBA FEFB|"A"(3ABA FB ABde|"Bm"fBBA FEFA|"A"(3Bcd cA "Bm"Bcde|
"Bm"fBBA FEFB|"A"(3ABA FB ABde|"D"faaf "A"effe|1 "Bm"dBBA ~B3e:|2 "Bm"dBAF B3c||
|:"D"d2fd Adfa|"G"bfaf "A"effe|"D"(3ddd fd Adfa|"G"bfaf "A"egfe|
"D"defd Adfa|"G"bfaf "A"efde|"Bm"fBBA FEFA|1 "A"(3Bcd cA "Bm"B3c:|2 "A"(3Bcd cA "Bm"~B3e||

